lib/healthicons/icons/solid/symbols/alert.svg

<svg fill="none" height="48" viewBox="0 0 48 48" width="48" xmlns="http://www.w3.org/2000/svg"><g fill="#333"><path d="m21 7c0-1.65685 1.3431-3 3-3s3 1.34315 3 3v24c0 1.6569-1.3431 3-3 3s-3-1.3431-3-3z"/><path d="m21 41c0-1.6569 1.3431-3 3-3s3 1.3431 3 3-1.3431 3-3 3-3-1.3431-3-3z"/></g></svg>

<svg width="48" height="48" viewBox="0 0 48 48" fill="none" xmlns="http://www.w3.org/2000/svg">
<path d="M21 7C21 5.34315 22.3431 4 24 4C25.6569 4 27 5.34315 27 7V31C27 32.6569 25.6569 34 24 34C22.3431 34 21 32.6569 21 31V7Z" fill="#333333"/>
<path d="M21 41C21 39.3431 22.3431 38 24 38C25.6569 38 27 39.3431 27 41C27 42.6569 25.6569 44 24 44C22.3431 44 21 42.6569 21 41Z" fill="#333333"/>
</svg>
